packages/icons/raw/imported/NotificationsBellRingingAlternative.svg

<svg width="32" height="32" viewBox="0 0 32 32" fill="none" xmlns="http://www.w3.org/2000/svg">
<path d="M13.5897 21.5334L14.0228 21.7834L14.2728 21.3504L13.8397 21.1004L13.5897 21.5334ZM8.61773 18.6628L8.86773 18.2298L8.43472 17.9798L8.18472 18.4128L8.61773 18.6628ZM7.99766 18.1103L7.74766 18.5433H7.74766L7.99766 18.1103ZM19.6258 24.8238L19.8758 24.3908L19.6258 24.8238ZM21.3495 24.1232L21.8051 24.3291V24.3291L21.3495 24.1232ZM7.74999 16.2571L7.34568 15.9629H7.34568L7.74999 16.2571ZM19.0639 8.11154L19.4969 8.36154L19.4969 8.36154L19.0639 8.11154ZM22.7519 10.2408L23.1849 10.4908V10.4908L22.7519 10.2408ZM22.5421 10.6042L22.1091 10.3542L21.9446 10.6391L22.1411 10.9029L22.5421 10.6042ZM23.373 15.8279L23.8599 15.9414L23.373 15.8279ZM13.8662 10.4131L14.2114 10.7749L13.8662 10.4131ZM18.8541 8.47495L18.796 8.97156L19.1226 9.00978L19.2871 8.72495L18.8541 8.47495ZM21.4495 23.5645H20.9495V23.5645L21.4495 23.5645ZM21.4495 21.8875H21.9495H21.4495ZM22.2117 18.4797L21.7593 18.2667L22.2117 18.4797ZM23.0598 16.6783L22.6075 16.4653L23.0598 16.6783ZM8.16384 15.9047L8.41914 16.3346H8.41914L8.16384 15.9047ZM9.66101 15.0155L9.40571 14.5856H9.40571L9.66101 15.0155ZM12.0705 12.8085L11.6646 12.5166H11.6646L12.0705 12.8085ZM13.3673 11.0058L13.7732 11.2977H13.7732L13.3673 11.0058ZM13.1567 21.2834C12.5021 22.4172 11.0523 22.8057 9.91844 22.1511L9.41844 23.0171C11.0306 23.9479 13.092 23.3955 14.0228 21.7834L13.1567 21.2834ZM9.91844 22.1511C8.78461 21.4965 8.39613 20.0466 9.05075 18.9128L8.18472 18.4128C7.25396 20.0249 7.80631 22.0864 9.41844 23.0171L9.91844 22.1511ZM8.36773 19.0958L13.3397 21.9664L13.8397 21.1004L8.86773 18.2298L8.36773 19.0958ZM7.74766 18.5433L19.3758 25.2568L19.8758 24.3908L8.24766 17.6773L7.74766 18.5433ZM19.3758 25.2568C19.866 25.5399 20.3858 25.5574 20.8393 25.3515C21.2755 25.1536 21.6052 24.7714 21.8051 24.3291L20.8939 23.9173C20.7698 24.1919 20.593 24.3652 20.4261 24.4409C20.2765 24.5088 20.0964 24.5182 19.8758 24.3908L19.3758 25.2568ZM7.34568 15.9629C7.05835 16.3578 6.88857 16.8364 6.93318 17.3156C6.97958 17.8141 7.25466 18.2587 7.74766 18.5433L8.24766 17.6773C8.02607 17.5494 7.94422 17.3877 7.92887 17.2229C7.91174 17.0388 7.97541 16.7971 8.15429 16.5512L7.34568 15.9629ZM19.4969 8.36154C19.9466 7.58256 20.943 7.3156 21.7223 7.76556L22.2223 6.89954C20.9648 6.17353 19.3569 6.6041 18.6309 7.86154L19.4969 8.36154ZM21.7223 7.76556C22.5017 8.21553 22.7686 9.21185 22.3189 9.99083L23.1849 10.4908C23.9109 9.23338 23.4798 7.62555 22.2223 6.89954L21.7223 7.76556ZM22.1411 10.9029C23.4042 12.5991 23.1049 14.7755 22.886 15.7144L23.8599 15.9414C24.0912 14.9495 24.4872 12.3792 22.9431 10.3056L22.1411 10.9029ZM22.9751 10.8542L23.1849 10.4908L22.3189 9.99083L22.1091 10.3542L22.9751 10.8542ZM14.2114 10.7749C14.8788 10.1381 16.6456 8.71995 18.796 8.97156L18.9122 7.97834C16.2857 7.67102 14.2234 9.38126 13.5211 10.0513L14.2114 10.7749ZM19.2871 8.72495L19.4969 8.36154L18.6309 7.86154L18.4211 8.22495L19.2871 8.72495ZM21.9495 23.5645L21.9495 21.8875H20.9495L20.9495 23.5645H21.9495ZM22.664 18.6926L23.5122 16.8913L22.6075 16.4653L21.7593 18.2667L22.664 18.6926ZM8.41914 16.3346L9.91632 15.4454L9.40571 14.5856L7.90853 15.4747L8.41914 16.3346ZM12.4764 13.1005L13.7732 11.2977L12.9614 10.7138L11.6646 12.5166L12.4764 13.1005ZM21.8051 24.3291C21.926 24.0616 21.9495 23.7868 21.9495 23.5645L20.9495 23.5645C20.9495 23.7247 20.9305 23.8363 20.8939 23.9173L21.8051 24.3291ZM8.15429 16.5512C8.20447 16.4823 8.28746 16.4128 8.41914 16.3346L7.90853 15.4747C7.72554 15.5834 7.51082 15.7359 7.34568 15.9629L8.15429 16.5512ZM21.9495 21.8875C21.9495 20.7829 22.1935 19.692 22.664 18.6926L21.7593 18.2667C21.226 19.3993 20.9495 20.6357 20.9495 21.8875H21.9495ZM9.91632 15.4454C10.9219 14.8483 11.7935 14.05 12.4764 13.1005L11.6646 12.5166C11.062 13.3543 10.293 14.0587 9.40571 14.5856L9.91632 15.4454ZM13.5211 10.0513C13.3006 10.2617 13.12 10.4933 12.9614 10.7138L13.7732 11.2977C13.9176 11.097 14.0564 10.9227 14.2114 10.7749L13.5211 10.0513ZM22.886 15.7144C22.8288 15.9599 22.7305 16.204 22.6075 16.4653L23.5122 16.8913C23.6476 16.6038 23.7794 16.2866 23.8599 15.9414L22.886 15.7144Z" fill="black"/>
</svg>

<svg width="32" height="32" fill="none" xmlns="http://www.w3.org/2000/svg"><path d="m13.59 21.533.433.25.25-.433-.433-.25-.25.433Zm-4.972-2.87.25-.433-.433-.25-.25.433.433.25Zm-.62-.553-.25.433.25-.433Zm11.628 6.714.25-.433-.25.433Zm1.723-.7.456.205-.456-.206ZM7.75 16.256l-.404-.294.404.294Zm11.314-8.145.433.25-.433-.25Zm3.688 2.129.433.25-.433-.25Zm-.21.363-.433-.25-.164.285.196.264.401-.299Zm.831 5.224.487.113-.487-.113Zm-9.507-5.415.345.362-.345-.362Zm4.988-1.938-.058.497.327.038.164-.285-.433-.25Zm2.596 15.09h-.5.5Zm0-1.678h.5-.5Zm.762-3.407-.453-.213.453.213Zm.848-1.802-.452-.213.452.213Zm-14.896-.773.255.43-.255-.43Zm1.497-.89-.255-.43.255.43Zm2.41-2.207-.406-.291.405.292Zm1.296-1.802.406.292-.406-.292Zm-.21 10.277a2.37 2.37 0 0 1-3.239.868l-.5.866a3.37 3.37 0 0 0 4.605-1.234l-.866-.5Zm-3.239.868a2.37 2.37 0 0 1-.867-3.238l-.866-.5a3.37 3.37 0 0 0 1.233 4.604l.5-.866Zm-1.55-3.055 4.972 2.87.5-.866-4.972-2.87-.5.866Zm-.62-.553 11.628 6.714.5-.866-11.628-6.714-.5.866Zm11.628 6.714c.49.283 1.01.3 1.463.095.437-.198.766-.58.966-1.023l-.911-.412c-.124.275-.301.448-.468.524-.15.068-.33.077-.55-.05l-.5.866Zm-12.03-9.294c-.288.395-.457.873-.413 1.353.047.498.322.943.815 1.227l.5-.866c-.222-.128-.304-.29-.32-.454-.016-.184.047-.426.226-.672l-.808-.588Zm12.15-7.601a1.629 1.629 0 0 1 2.226-.596l.5-.866a2.629 2.629 0 0 0-3.591.962l.866.5Zm2.226-.596a1.63 1.63 0 0 1 .597 2.225l.866.5a2.629 2.629 0 0 0-.963-3.591l-.5.866Zm.42 3.137c1.262 1.696.963 3.872.744 4.811l.974.227c.231-.992.627-3.562-.917-5.635l-.802.597Zm.833-.049.21-.363-.866-.5-.21.363.866.5Zm-8.764-.08c.668-.636 2.435-2.054 4.585-1.802l.116-.994c-2.626-.307-4.689 1.403-5.39 2.073l.69.724Zm5.076-2.049.21-.363-.866-.5-.21.363.866.5Zm2.663 14.84v-1.678h-1v1.677h1Zm.714-4.872.848-1.802-.904-.426-.849 1.802.905.426ZM8.419 16.335l1.497-.89-.51-.86-1.497.89.51.86Zm4.057-3.235 1.297-1.802-.812-.584-1.296 1.803.811.584Zm9.33 11.23c.12-.268.143-.543.143-.765h-1c0 .16-.019.271-.055.352l.911.412ZM8.153 16.55a.868.868 0 0 1 .265-.216l-.51-.86a1.843 1.843 0 0 0-.563.488l.808.588Zm13.796 5.337a7.5 7.5 0 0 1 .714-3.195l-.905-.426a8.5 8.5 0 0 0-.81 3.62h1ZM9.915 15.444a8.498 8.498 0 0 0 2.56-2.345l-.811-.583a7.5 7.5 0 0 1-2.26 2.069l.511.86Zm3.605-5.394c-.22.21-.401.442-.56.663l.812.584c.145-.201.283-.375.438-.523l-.69-.724Zm9.365 5.663a3.81 3.81 0 0 1-.278.751l.904.426c.136-.287.267-.604.348-.95l-.974-.227Z" fill="#000"/></svg>
